X:16859
T:The House of Hamill
M:C
L:1/8
C:Ed Reavy
K:D
D|:EB{c}BA BFAF|EB{c}Bc dAFD|EB{c}BA (3Bcd ef|gfec dAFD|EB{c}BA
BFAF|EB{c}Bc dAFD|EB{c}BA (3Bcd ef|gfec dAFA||BE (3EEE dE (3EEE |BE (3EE
E
dAFA|BE (3EEE (3Bcd ef|gfec dAFD|BE (3EEE dE (3EEE|BE (3EEE dAFA|BAGF
GBef|gfec dAFA|| B2 ^GB eBGB|{c}BA^GB ADFA|B ^GB eBGB|=gfec dAFA| B2 ^GB
eBGB|{c}BA^GB ADFA|BA=GF GBbf|gfec dAFD:|E8|
